packages/core/src/svgs/paxg.svg

<svg width="24" height="24" viewBox="0 0 24 24" fill="none" xmlns="http://www.w3.org/2000/svg">
<g clip-path="url(#clip0_31_15763)">
<path d="M0 0H24V24H0V0Z" fill="#F0F3FA"/>
<path d="M8.76434 6.92977C9.00822 6.64745 9.26567 6.37713 9.53576 6.11977C5.43862 5.9912 6.63434 8.94834 5.29291 11.9526C3.75862 15.4155 5.47719 16.7355 8.04005 17.1426C7.68434 16.7269 7.39719 16.2469 7.17433 15.7283C5.51148 13.6455 6.18005 9.83977 8.76434 6.92977ZM18.63 10.6155C18.2486 11.6869 17.55 12.8912 16.56 14.0741C15.8503 14.9365 14.9997 15.6726 14.0443 16.2512C12.9345 16.9522 11.6455 17.3169 10.3329 17.3012C9.53576 17.3012 8.75576 17.2583 8.04005 17.1426C8.46183 17.6456 8.98454 18.0544 9.57433 18.3426C13.2815 20.1298 13.5172 16.8083 17.4386 15.1241C19.6415 14.1769 19.65 12.3255 18.63 10.6155Z" fill="#EFE812"/>
<path d="M14.0443 7.15734C14.5886 7.25591 15.1072 7.43591 15.5743 7.69734C16.8209 8.39936 17.8716 9.40283 18.63 10.6159C19.2986 8.73877 18.99 7.26448 17.5286 6.99448C15.9215 6.70305 14.6658 6.60877 13.4572 5.76877C11.9743 4.73162 10.6715 5.07448 9.54004 6.1202L9.78432 6.13305C11.3529 6.22305 12.8486 6.52734 14.0443 7.16162V7.15734Z" fill="#EEE809"/>
<path d="M8.76434 6.93012C6.18005 9.8444 5.51148 13.6458 7.17434 15.733C6.7878 14.8262 6.61866 13.8417 6.68043 12.8579C6.74219 11.8742 7.03314 10.9185 7.53005 10.0673C8.93148 7.74869 11.7386 6.73726 14.0443 7.15726C12.8486 6.52726 11.3529 6.22297 9.78434 6.12869L9.54005 6.12012C9.29576 6.34726 9.04291 6.61297 8.76434 6.93012Z" fill="#DEC21C"/>
<path d="M15.5743 7.69723C15.098 7.43321 14.5808 7.25069 14.0443 7.15723C15.6172 7.98437 16.6586 9.37723 16.65 11.5929C16.6419 12.5258 16.3989 13.4416 15.9435 14.2558C15.4881 15.0699 14.8349 15.7563 14.0443 16.2515C14.9997 15.6729 15.8503 14.9368 16.56 14.0744C17.4452 13.0501 18.1456 11.8799 18.63 10.6158C17.8711 9.40417 16.8205 8.40218 15.5743 7.70151V7.69723Z" fill="#E5CB22"/>
<path d="M13.7828 15.1973C12.9301 15.7426 11.8966 15.9292 10.907 15.7166C9.91747 15.5039 9.05188 14.9091 8.49854 14.0616C7.35426 12.3001 7.91997 10.0287 9.63854 8.80729C11.5585 7.44443 14.0271 7.98015 14.9271 9.943C15.8014 11.8501 15.5614 14.0573 13.7828 15.1973ZM14.04 7.15729C11.7385 6.73729 8.9314 7.74872 7.52997 10.063C7.03238 10.9148 6.74104 11.8712 6.67927 12.8558C6.61751 13.8403 6.78702 14.8257 7.17426 15.733C7.39283 16.2473 7.68426 16.7273 8.03997 17.1473C8.75569 17.2587 9.53997 17.3016 10.3328 17.3016C11.7514 17.3016 13.02 16.9159 14.0443 16.2516C14.8349 15.7564 15.488 15.07 15.9434 14.2558C16.3988 13.4416 16.6418 12.5259 16.65 11.593C16.6628 9.37729 15.6171 7.98443 14.0443 7.15729H14.04Z" fill="#CCA727"/>
</g>
<defs>
<clipPath id="clip0_31_15763">
<rect width="24" height="24" fill="white"/>
</clipPath>
</defs>
</svg>

<svg xmlns="http://www.w3.org/2000/svg" width="24" height="24" fill="none" viewBox="0 0 24 24"><g clip-path="url(#a)"><path fill="#F0F3FA" d="M0 0h24v24H0z"/><path fill="#EFE812" d="M8.764 6.93q.367-.425.772-.81c-4.097-.129-2.902 2.828-4.243 5.833-1.534 3.463.184 4.782 2.747 5.19a5.5 5.5 0 0 1-.866-1.415C5.511 13.646 6.18 9.84 8.764 6.93m9.866 3.686c-.381 1.07-1.08 2.275-2.07 3.458a9.9 9.9 0 0 1-2.516 2.177 6.8 6.8 0 0 1-3.711 1.05c-.797 0-1.577-.043-2.293-.158.422.503.945.911 1.534 1.2 3.707 1.787 3.943-1.535 7.865-3.219 2.203-.947 2.211-2.799 1.191-4.508"/><path fill="#EEE809" d="M14.044 7.157a5 5 0 0 1 1.53.54 8.55 8.55 0 0 1 3.056 2.919c.669-1.877.36-3.352-1.101-3.622-1.607-.29-2.863-.385-4.072-1.225-1.483-1.037-2.786-.695-3.917.351l.244.013c1.569.09 3.065.394 4.26 1.029z"/><path fill="#DEC21C" d="M8.764 6.93c-2.584 2.914-3.253 6.716-1.59 8.803a6.32 6.32 0 0 1 .356-5.666c1.401-2.318 4.209-3.33 6.514-2.91-1.195-.63-2.691-.934-4.26-1.028L9.54 6.12a11 11 0 0 0-.776.81"/><path fill="#E5CB22" d="M15.574 7.697a4.9 4.9 0 0 0-1.53-.54c1.573.827 2.615 2.22 2.606 4.436a5.55 5.55 0 0 1-2.606 4.659 9.9 9.9 0 0 0 2.516-2.178 11.7 11.7 0 0 0 2.07-3.458 8.55 8.55 0 0 0-3.056-2.914z"/><path fill="#CCA727" d="M13.783 15.197a3.84 3.84 0 0 1-5.284-1.135c-1.145-1.762-.579-4.033 1.14-5.255 1.92-1.363 4.388-.827 5.288 1.136.874 1.907.634 4.114-1.144 5.254m.257-8.04c-2.301-.42-5.109.592-6.51 2.906a6.32 6.32 0 0 0-.356 5.67c.219.514.51.994.866 1.414.716.112 1.5.155 2.293.155 1.418 0 2.687-.386 3.711-1.05a5.55 5.55 0 0 0 2.606-4.659c.013-2.216-1.033-3.609-2.606-4.436z"/></g><defs><clipPath id="a"><path fill="#fff" d="M0 0h24v24H0z"/></clipPath></defs></svg>
